symbols/web/format_align_left/materialsymbolsoutlined/format_align_left_wght500_40px.svg

<svg xmlns="http://www.w3.org/2000/svg" height="40" width="40"><path d="M4.292 35.708v-3.166h31.416v3.166Zm0-7.083V25.5h21v3.125Zm0-7.042v-3.166h31.416v3.166Zm0-7.083v-3.167h21V14.5Zm0-7.042V4.292h31.416v3.166Z"/></svg>

<svg xmlns="http://www.w3.org/2000/svg" height="40" width="40"><path d="M4.292 28.625V25.5H25.292V28.625ZM4.292 14.5V11.333H25.292V14.5ZM4.292 21.583V18.417H35.708V21.583ZM4.292 35.708V32.542H35.708V35.708ZM4.292 7.458V4.292H35.708V7.458Z"/></svg>
